X: 37650
T: Snow On Valafield
R: reel
M: 4/4
K: Aminor
|:AB|cABG (3ABA cd|efge dBGB|cBcd efgd|eaag a2 AB|
cABG (3ABA cd|efge dBGB|cBcd efge|dBGB A2:|
|:ef|ed^cd eaaf|(3gag d=c BGGB|AB^cd efge|dBGB A2 ef|
ed^cd eaaf|(3gag d=c BGGB|AB^cd efgd|eaag a2:|

